!!!COM: Palestrina, Giovanni Perluigi da
!!!OPR: Missa Salve regina
!!!OMD: Gloria
!!!OTL: Domine Deus
**kern	**kern	**kern	**kern
*Ibass	*Itenor	*Icalto	*Icalto
!Bassus	!Tenor	!Altus 2	!Altus 1
*clefF4	*clefGv2	*clefG2	*clefG2
*k[b-]	*k[b-]	*k[b-]	*k[b-]
*G:dor	*G:dor	*G:dor	*G:dor
*M4/2	*M4/2	*M4/2	*M4/2
=48	=48	=48	=48
1.G	1r	0r	0r
.	[1d	.	.
2G	.	.	.
=49	=49	=49	=49
2G	2d]	0r	0r
1B-	2d	.	.
.	2d	.	.
4A	[2f	.	.
4G	.	.	.
=50	=50	=50	=50
2F	2f]	0r	0r
2G	4e	.	.
.	4d	.	.
2A	2c	.	.
2B-	2d	.	.
=51	=51	=51	=51
1c	1e-	1r	1.g
[1G	4d	2r	.
.	4c	.	.
.	4B-	[2d	2g
.	4A	.	.
=52	=52	=52	=52
1G]	2B-	2d]	2g
.	4G	2d	1b-
.	4A	.	.
1r	4B-	2d	.
.	4c	.	.
.	[2d	[2f	4a
.	.	.	4g
=53	=53	=53	=53
0r	2d]	2f]	2f
.	1c	4e	2g
.	.	4d	.
.	.	2c	2a
.	2B-	2d	2b-
=54	=54	=54	=54
0r	1A	2e	2.cc
.	.	2f	.
.	.	.	8b-
.	.	.	8a
.	2G	1g	1b-
.	[2g	.	.
=55	=55	=55	=55
1.D	2g]	1d	2.a
.	4f	.	.
.	4e	.	4a
.	2.f	2r	2a
2D	.	[2a	2d
.	4e	.	.
=56	=56	=56	=56
2D	2d	2a]	1f
1F	4c	2a	.
.	4B-	.	.
.	2A	2a	1c
4E	2G	[2cc	.
4D	.	.	.
=57	=57	=57	=57
2C	2A	2cc]	1r
2D	2B-	4b-	.
.	.	4a	.
2E	1c	2g	2r
2F	.	2a	2f
=58	=58	=58	=58
2.G	1B-	1b-	2d
.	.	.	1g
4A	.	.	.
4B-	1G	1b-	.
4c	.	.	.
[2d	.	.	2f
=59	=59	=59	=59
2d]	1A	1a	1e
2c#	.	.	.
4d	2.B-	2f	1d
4c	.	.	.
4B-	.	[2d	.
4A	4c	.	.
=60	=60	=60	=60
2G	1d	4d]	2r
.	.	4e	.
4F	.	4f	2.d
4E	.	4g	.
[1D	1r	2a	.
.	.	.	4e
.	.	2a	4f
.	.	.	4g
=61	=61	=61	=61
1D]	1r	2.f	2a
.	.	.	2a
.	.	4g	.
1r	2r	2a	2f
.	[2G	[2b-	4g
.	.	.	4a
=62	=62	=62	=62
0r	4G]	4b-]	4b-
.	4A	4a	4cc
.	4B-	1g	1b-
.	4c	.	.
.	2d	.	.
.	2d	2f	[2a
=63	=63	=63	=63
0r	1B-	1b-	4a]
.	.	.	4g
.	.	.	1g
.	2c	1a	.
.	2d	.	2f#
=64	=64	=64	=64
2r	1G	0g	2.g
2.G	.	.	.
.	.	.	4a
.	2r	.	[1b-
4A	.	.	.
4B-	[2G	.	.
4c	.	.	.
=65	=65	=65	=65
2d	4G]	2r	1b-]
.	4A	.	.
2d	4B-	2.d	.
.	4c	.	.
2.D	2d	.	1a
.	.	4e	.
.	2d	4f	.
4E	.	4g	.
=66	=66	=66	=66
4F	2.c	2a	1r
4G	.	.	.
4A	.	2a	.
4B-	4d	.	.
2c	2e	2g	2r
2d	[2f	4f	[2d
.	.	4e	.
=67	=67	=67	=67
1B-	4f]	1d	4d]
.	4e	.	4e
.	1d	.	4f
.	.	.	4g
1A	.	1e	2a
.	2c#	.	2a
=68	=68	=68	=68
2.D	1d	1d	2.f
4E	.	.	4g
2F	1d	2r	2a
2G	.	[2G	[2b-
=69	=69	=69	=69
1E-	2G	4G]	4b-]
.	.	4A	4a
.	2G	4B-	1g
.	.	4c	.
1D	1A	2d	.
.	.	2d	2f#
=70	=70	=70	=70
1G	2G	2.B-	0g
.	2d	.	.
.	.	4c	.
2r	2B-	2d	.
[2C	2c	[2e-	.
=71	=71	=71	=71
4C]	1.e-	4e-]	2r
4D	.	4d	.
4E-	.	1c	1g
4F	.	.	.
2G	.	.	.
2G	2d	2B-	2g
=72	=72	=72	=72
1C	0c	0e-	1g
1C	.	.	1g
=73	=73	=73	=73
0G	0B	0d	0g
*-	*-	*-	*-
!!!CDT: 1525/^1526/-1594/2/2
!!!OCY: Italia
!!!AGN: Mass (Paraphrase)
!!!AST: renaissance, vocal
!!!ASW: Antiphon
!!!PWK: Masses, Book 11
!!!RNB: Cadence finals: D
!!!YOR: Le Opere Complete, v. 28, p. 185
!!!YOO: Rome, Italy: Fratelli Scalera
!!!END: 1992//
!!!EED: John Miller
!!!YEC: Copyright 2000, John Miller
!!!YEN: United States of America
!!!YEM: Rights to all derivative electronic formats reserved.
!!!YEM: Refer to licensing agreement for further details.
!!!YEM: This file must be accompanied by the licensing agreement.
!!!YEM: A copy of the licensing agreement may be found at http://www.music-cog.ohio-state.edu/HumdrumDatabases/Palestrina/license.txt
!!!EMD: converted to Humdrum by Bret Aarden
